X:298
T: ZWISCHEN BERG UND TIEFEM THAL
N: E0170
O: Europa, Mitteleuropa, Deutschland
R: erzaehlendes Volks - Lied, Sage, Tier - Maerchen, Scherz
M: 3/4
L: 1/16
K: G
 | D3DG4B4 | B3AA3GA4 |
D2F2A4c4 | c4B4z4 |
d3cB4d4 | d3cc3Bc4 |
c3BA4c4 | c3BB3AB4 |
G2B2d4B2G2 | A4G4z4 |
d3cB4d4 | d3cc3Bc4 |
c3BA4c4 | c3BB3AB4 |
G2B2d4B2G2 | A4G4z4

@@@ Tune index: 3948
